src/16/panel/weather-freezing-rain.svg

<svg xmlns="http://www.w3.org/2000/svg" width="16" height="16"><path d="M8 0C5.929 0 4.165 1.27 3.406 3.07A3.974 3.974 0 0 0 0 7c0 1.94 1.365 3.54 3.187 3.91.764-.78 1.522-1.56 2.313-2.31.573.54 1.133 1.1 1.687 1.65.243-.07.383-.84.719-1.09.854-.87 1.709-1.73 2.594-2.56.666.62 1.291 1.26 1.937 1.9.598.57 1.228 1.21 1.438 2.03.016.06.018.11.031.16A3.466 3.466 0 0 0 16 7.5c0-1.79-1.351-3.27-3.094-3.47C12.451 1.74 10.427 0 8 0zm2.5 9.44c-.085.08-.165.17-.25.25-.397.42-.899.78-1.125 1.31h2.781c-.026-.06-.056-.13-.094-.18-.373-.52-.879-.92-1.312-1.38z" fill="currentColor" color="#bebebe"/><path d="M10.5 8l-.344.34L8.75 9.75A2.46 2.46 0 0 0 8 11.5a2.51 2.51 0 0 0 2.5 2.5 2.51 2.51 0 0 0 2.5-2.5c0-.69-.297-1.3-.75-1.75l-1.406-1.41zm-5 2l-.344.34-1.406 1.41A2.46 2.46 0 0 0 3 13.5 2.51 2.51 0 0 0 5.5 16 2.51 2.51 0 0 0 8 13.5c0-.69-.297-1.3-.75-1.75l-1.406-1.41z" fill="currentColor" color="#5294e2"/></svg>

<svg xmlns="http://www.w3.org/2000/svg" width="16" height="16" version="1.1">
 <defs>
  <style id="current-color-scheme" type="text/css">
   .ColorScheme-Text { color:#bebebe; } .ColorScheme-Highlight { color:#5294e2; }
  </style>
 </defs>
 <path style="fill:currentColor" class="ColorScheme-Text" d="M 8,0 C 5.929,0 4.165,1.27 3.406,3.07 1.478,3.35 0,5 0,7 0,8.94 1.365,10.54 3.187,10.91 3.951,10.13 4.709,9.35 5.5,8.6 6.073,9.14 6.633,9.7 7.187,10.25 7.43,10.18 7.57,9.41 7.906,9.16 8.76,8.29 9.615,7.43 10.5,6.6 11.166,7.22 11.791,7.86 12.437,8.5 13.035,9.07 13.665,9.71 13.875,10.53 13.891,10.59 13.893,10.64 13.906,10.69 15.141,10.15 16,8.94 16,7.5 16,5.71 14.649,4.23 12.906,4.03 12.451,1.74 10.427,0 8,0 Z M 10.5,9.44 C 10.415,9.52 10.335,9.61 10.25,9.69 9.853,10.11 9.351,10.47 9.125,11 H 11.906 C 11.88,10.94 11.85,10.87 11.812,10.82 11.439,10.3 10.933,9.9 10.5,9.44 Z"/>
 <path style="fill:currentColor" class="ColorScheme-Highlight" d="M 10.5,8 10.156,8.34 8.75,9.75 C 8.297,10.2 8,10.81 8,11.5 8,12.87 9.125,14 10.5,14 11.875,14 13,12.87 13,11.5 13,10.81 12.703,10.2 12.25,9.75 L 10.844,8.34 Z M 5.5,10 5.156,10.34 3.75,11.75 C 3.297,12.2 3,12.81 3,13.5 3,14.87 4.125,16 5.5,16 6.875,16 8,14.87 8,13.5 8,12.81 7.703,12.2 7.25,11.75 L 5.844,10.34 Z"/>
</svg>
